X:1
T:Rosecrans, 86.86.86
T:James Holmes Rosecrans, 1890
T:Rosecrans, 86.86.86
T:Public Domain
C:James Holmes Rosecrans, 1890
Z:Public Domain
%%score ( 1 2 ) ( 3 4 )
L:1/8
M:4/4
K:Ab
V:1 treble 
V:2 treble 
V:3 bass 
V:4 bass 
V:1
 E2 | [CA]3 [DB] [Ec][CE][DF][DG] | [EA]2 [EB]2 [Ec]2 [Fd]2 | [Ec]4 [EB]4 | [Ec]6 E2 | %5
 [CA]3 [DB] [Ec][CE][DF][DG] | [EA]2 [EB]2 [Ec]2 [Fd]2 | [Ec]4 [EB]4 | [EA]6 [Ec]2 | %9
 [Fd]3 [FA] [FA]2 [DB]2 | [Ec]2 [CE]2 [DF]2 [DG]2 | [EA]3 [EB] [Ec]2 [A=d]2 | [Ge]6 E2 | %13
 [CA]3 [DB] [Ec][CE][DF][DG] | [EA]2 [EB]2 [Ec]2 [Fd]2 | [Ec]4 [EB]4 | [EA]6 |] %17
V:2
 E2 | x8 | x8 | x8 | x6 E2 | x8 | x8 | x8 | x8 | x8 | x8 | x8 | x6 E2 | x8 | x8 | x8 | x6 |] %17
V:3
 E,2 | A,3 A, A,[A,,A,][D,A,][B,,B,] | [C,A,]2 [E,G,]2 A,2 [D,A,]2 | [E,A,]4 [E,G,]4 | %4
 [A,,A,]6 E,2 | A,3 A, A,[A,,A,][D,A,][B,,B,] | [C,A,]2 [E,G,]2 A,2 [D,A,]2 | [E,A,]4 [E,D]4 | %8
 [A,,C]6 A,2 | [D,A,]3 [D,D] [D,D]2 [D,F,]2 | [A,,A,]2 [A,,A,]2 [D,A,]2 [B,,B,]2 | %11
 [C,A,]3 [E,G,] A,2 [F,A,]2 | [E,B,]6 E,2 | A,3 A, A,[A,,A,][D,A,][B,,B,] | %14
 [C,A,]2 [E,G,]2 A,2 [D,A,]2 | [E,A,]4 [E,D]4 | [A,,C]6 |] %17
V:4
 E,2 | A,3 A, A, x3 | x4 A,2 x2 | x8 | x6 E,2 | A,3 A, A, x3 | x4 A,2 x2 | x8 | x6 A,2 | x8 | x8 | %11
 x4 A,2 x2 | x6 E,2 | A,3 A, A, x3 | x4 A,2 x2 | x8 | x6 |] %17

